src/assets/chef/003-chef-1.svg

<?xml version="1.0" encoding="iso-8859-1"?>
<!-- Generator: Adobe Illustrator 19.0.0, SVG Export Plug-In . SVG Version: 6.00 Build 0)  -->
<svg version="1.1" id="Layer_1" xmlns="http://www.w3.org/2000/svg" xmlns:xlink="http://www.w3.org/1999/xlink" x="0px" y="0px"
	 viewBox="0 0 512 512" style="enable-background:new 0 0 512 512;" xml:space="preserve">
<path style="fill:#F2F2F2;" d="M102.773,361.228v95.799h306.455v-158.78c52.075-0.93,94.011-43.405,94.011-95.702
	c0-52.879-42.867-95.745-95.745-95.745c-22.144,0-42.514,7.538-58.733,20.159c-10.586-41.358-48.101-71.934-92.758-71.934
	s-82.172,30.575-92.758,71.934c-16.219-12.621-36.591-20.159-58.733-20.159c-52.879,0-95.745,42.867-95.745,95.745
	c0,52.297,41.936,94.772,94.011,95.702v33.774"/>
<path style="fill:#E6E6E6;" d="M146.581,332.021v-33.774c-52.075-0.93-94.011-43.405-94.011-95.702
	c0-45.34,31.526-83.293,73.846-93.2c-7.038-1.652-14.366-2.546-21.909-2.546c-52.879,0-95.745,42.867-95.745,95.745
	c0,52.297,41.936,94.772,94.011,95.702v33.774v29.207v95.799h43.808v-95.799V332.021z"/>
<rect x="102.773" y="394.039" style="fill:#F97E62;" width="306.452" height="62.99"/>
<rect x="102.773" y="394.039" style="fill:#E86B56;" width="43.808" height="62.99"/>
<path d="M407.491,98.011c-19.307,0-37.748,5.16-53.99,15.022C338.129,73.158,299.626,46.237,256,46.237
	s-82.129,26.922-97.503,66.797c-16.241-9.863-34.683-15.022-53.99-15.022C46.882,98.011,0,144.893,0,202.519
	c0,27.583,10.652,53.6,29.993,73.26c17.286,17.57,39.759,28.291,64.017,30.701v25.516c0,4.839,3.923,8.762,8.762,8.762
	s8.762-3.923,8.762-8.762v-33.774c0-4.778-3.828-8.676-8.606-8.761c-22.902-0.409-44.368-9.632-60.443-25.972
	c-16.097-16.362-24.962-38.014-24.962-60.97c0-47.963,39.021-86.983,86.985-86.983c19.509,0,37.958,6.332,53.352,18.312
	c2.332,1.814,5.421,2.332,8.215,1.376c2.796-0.956,4.921-3.256,5.653-6.118C181.578,90.631,216.23,63.761,256,63.761
	c39.768,0,74.422,26.871,84.269,65.344c0.733,2.862,2.858,5.163,5.653,6.118c2.795,0.956,5.885,0.438,8.215-1.376
	c15.394-11.98,33.843-18.312,53.352-18.312c47.963,0,86.985,39.021,86.985,86.983c0,22.956-8.865,44.609-24.962,60.969
	c-16.076,16.34-37.542,25.564-60.443,25.972c-4.777,0.085-8.606,3.983-8.606,8.761v87.028h-28.81c-4.839,0-8.762,3.923-8.762,8.762
	s3.923,8.762,8.762,8.762h28.811v45.466h-288.93v-45.466h230.912c4.839,0,8.762-3.923,8.762-8.762s-3.923-8.762-8.762-8.762H111.535
	v-24.047c0-4.839-3.923-8.762-8.762-8.762s-8.762,3.923-8.762,8.762v95.799c0,4.839,3.923,8.762,8.762,8.762h306.455
	c4.839,0,8.762-3.923,8.762-8.762V306.48c24.258-2.41,46.731-13.132,64.017-30.701C501.348,256.12,512,230.102,512,202.519
	C512,144.893,465.117,98.011,407.491,98.011z"/>
<g>
</g>
<g>
</g>
<g>
</g>
<g>
</g>
<g>
</g>
<g>
</g>
<g>
</g>
<g>
</g>
<g>
</g>
<g>
</g>
<g>
</g>
<g>
</g>
<g>
</g>
<g>
</g>
<g>
</g>
</svg>

<?xml version="1.0" encoding="UTF-8" standalone="no"?>
<!DOCTYPE svg PUBLIC "-//W3C//DTD SVG 1.1//EN" "http://www.w3.org/Graphics/SVG/1.1/DTD/svg11.dtd">
<svg width="100%" height="100%" viewBox="0 0 512 512" version="1.1" xmlns="http://www.w3.org/2000/svg" xmlns:xlink="http://www.w3.org/1999/xlink" xml:space="preserve" xmlns:serif="http://www.serif.com/" style="fill-rule:evenodd;clip-rule:evenodd;stroke-linejoin:round;stroke-miterlimit:1.41421;">
    <path d="M102.773,361.228L102.773,457.027L409.228,457.027L409.228,298.247C461.303,297.317 503.239,254.842 503.239,202.545C503.239,149.666 460.372,106.8 407.494,106.8C385.35,106.8 364.98,114.338 348.761,126.959C338.175,85.601 300.66,55.025 256.003,55.025C211.346,55.025 173.831,85.6 163.245,126.959C147.026,114.338 126.654,106.8 104.512,106.8C51.633,106.8 8.767,149.667 8.767,202.545C8.767,254.842 50.703,297.317 102.778,298.247L102.778,332.021" style="fill:rgb(242,242,242);fill-rule:nonzero;"/>
    <path d="M146.581,332.021L146.581,298.247C94.506,297.317 52.57,254.842 52.57,202.545C52.57,157.205 84.096,119.252 126.416,109.345C119.378,107.693 112.05,106.799 104.507,106.799C51.628,106.799 8.762,149.666 8.762,202.544C8.762,254.841 50.698,297.316 102.773,298.246L102.773,457.026L146.581,457.026L146.581,361.227L146.581,332.021Z" style="fill:rgb(230,230,230);fill-rule:nonzero;"/>
    <rect x="102.773" y="394.039" width="43.808" height="62.99" style="fill:rgb(230,230,230);"/>
    <path d="M407.491,98.011C388.184,98.011 369.743,103.171 353.501,113.033C338.129,73.158 299.626,46.237 256,46.237C212.374,46.237 173.871,73.159 158.497,113.034C142.256,103.171 123.814,98.012 104.507,98.012C46.882,98.011 0,144.893 0,202.519C0,230.102 10.652,256.119 29.993,275.779C47.279,293.349 69.752,304.07 94.01,306.48L94.01,331.996C94.01,336.835 97.933,340.758 102.772,340.758C107.611,340.758 111.534,336.835 111.534,331.996L111.534,298.222C111.534,293.444 107.706,289.546 102.928,289.461C80.026,289.052 58.56,279.829 42.485,263.489C26.388,247.127 17.523,225.475 17.523,202.519C17.523,154.556 56.544,115.536 104.508,115.536C124.017,115.536 142.466,121.868 157.86,133.848C160.192,135.662 163.281,136.18 166.075,135.224C168.871,134.268 170.996,131.968 171.728,129.106C181.578,90.631 216.23,63.761 256,63.761C295.768,63.761 330.422,90.632 340.269,129.105C341.002,131.967 343.127,134.268 345.922,135.223C348.717,136.179 351.807,135.661 354.137,133.847C369.531,121.867 387.98,115.535 407.489,115.535C455.452,115.535 494.474,154.556 494.474,202.518C494.474,225.474 485.609,247.127 469.512,263.487C453.436,279.827 431.97,289.051 409.069,289.459C404.292,289.544 400.463,293.442 400.463,298.22L400.463,385.248L371.653,385.248C366.814,385.248 362.891,389.171 362.891,394.01C362.891,398.849 366.814,402.772 371.653,402.772L400.464,402.772L400.464,448.238L111.534,448.238L111.534,402.772L342.446,402.772C347.285,402.772 351.208,398.849 351.208,394.01C351.208,389.171 347.285,385.248 342.446,385.248L111.535,385.248L111.535,361.201C111.535,356.362 107.612,352.439 102.773,352.439C97.934,352.439 94.011,356.362 94.011,361.201L94.011,457C94.011,461.839 97.934,465.762 102.773,465.762L409.228,465.762C414.067,465.762 417.99,461.839 417.99,457L417.99,306.48C442.248,304.07 464.721,293.348 482.007,275.779C501.348,256.12 512,230.102 512,202.519C512,144.893 465.117,98.011 407.491,98.011Z" style="fill-rule:nonzero;"/>
    <g transform="matrix(1.54865,2.44591e-32,-2.44591e-32,1.54865,-28.3174,-96.3841)">
        <g id="Layer1">
            <g>
                <text x="99.327px" y="227.543px" style="font-family:'chocoleta';font-size:72px;fill:url(#_Linear1);">RxJS</text>
                <text x="99.327px" y="299.543px" style="font-family:'chocoleta';font-size:72px;fill:url(#_Linear2);">CHEF</text>
            </g>
        </g>
    </g>
    <defs>
        <linearGradient id="_Linear1" x1="0" y1="0" x2="1" y2="0" gradientUnits="userSpaceOnUse" gradientTransform="matrix(168.429,0,0,127.968,99.3781,235.583)"><stop offset="0" style="stop-color:rgb(193,255,85);stop-opacity:1"/><stop offset="1" style="stop-color:rgb(0,163,230);stop-opacity:1"/></linearGradient>
        <linearGradient id="_Linear2" x1="0" y1="0" x2="1" y2="0" gradientUnits="userSpaceOnUse" gradientTransform="matrix(168.429,0,0,127.968,99.3781,235.583)"><stop offset="0" style="stop-color:rgb(193,255,85);stop-opacity:1"/><stop offset="1" style="stop-color:rgb(0,163,230);stop-opacity:1"/></linearGradient>
    </defs>
</svg>
